Numix-GalliumOS/64/actions/stock_video-conferencing.svg

<?xml version="1.0" encoding="UTF-8" standalone="no"?>
<!-- Created with Inkscape (http://www.inkscape.org/) -->

<svg
   xmlns:dc="http://purl.org/dc/elements/1.1/"
   xmlns:cc="http://creativecommons.org/ns#"
   xmlns:rdf="http://www.w3.org/1999/02/22-rdf-syntax-ns#"
   xmlns:svg="http://www.w3.org/2000/svg"
   xmlns="http://www.w3.org/2000/svg"
   xmlns:sodipodi="http://sodipodi.sourceforge.net/DTD/sodipodi-0.dtd"
   xmlns:inkscape="http://www.inkscape.org/namespaces/inkscape"
   id="svg2"
   version="1.1"
   inkscape:version="0.91 r"
   xml:space="preserve"
   width="64"
   height="64"
   viewBox="0 0 64 64"
   sodipodi:docname="stock_video-conferencing.svg"><metadata
     id="metadata8"><rdf:RDF><cc:Work
         rdf:about=""><dc:format>image/svg+xml</dc:format><dc:type
           rdf:resource="http://purl.org/dc/dcmitype/StillImage" /><dc:title /></cc:Work></rdf:RDF></metadata><defs
     id="defs6" /><sodipodi:namedview
     pagecolor="#ffffff"
     bordercolor="#666666"
     borderopacity="1"
     objecttolerance="10"
     gridtolerance="10"
     guidetolerance="10"
     inkscape:pageopacity="0"
     inkscape:pageshadow="2"
     inkscape:window-width="1920"
     inkscape:window-height="1056"
     id="namedview4"
     showgrid="true"
     inkscape:zoom="16"
     inkscape:cx="19.89036"
     inkscape:cy="16.582874"
     inkscape:window-x="0"
     inkscape:window-y="24"
     inkscape:window-maximized="1"
     inkscape:current-layer="g10"><inkscape:grid
       type="xygrid"
       id="grid4142" /></sodipodi:namedview><g
     id="g10"
     inkscape:groupmode="layer"
     inkscape:label="stock_video-conferencing"
     transform="matrix(1.25,0,0,-1.25,0,64)"><path
       inkscape:connector-curvature="0"
       id="path14"
       style="fill:#2d2d2d;fill-opacity:1;fill-rule:nonzero;stroke:none"
       d="M 20,16 31.2,16 31.2,3.2 20,3.2 20,16 Z" /><path
       inkscape:connector-curvature="0"
       id="path16"
       style="fill:#888888;fill-opacity:1;fill-rule:nonzero;stroke:none"
       d="M 25.589996,51.2 C 14.994686,51.2 6.4,42.609792 6.4,32 6.4,21.410206 14.994686,12.8 25.589996,12.8 36.205316,12.8 44.8,21.410206 44.8,32 c 0,10.609792 -8.594684,19.2 -19.210004,19.2 z m 0,-10.873736 c 4.597438,0 8.330604,-3.731222 8.330604,-8.326264 0,-4.591044 -3.733166,-8.310268 -8.330604,-8.310268 -4.593434,0 -8.314598,3.719224 -8.314598,8.310268 0,4.595042 3.721164,8.326264 8.314598,8.326264 z" /><path
       inkscape:connector-curvature="0"
       id="path18"
       style="fill:#888888;fill-opacity:1;fill-rule:nonzero;stroke:none"
       d="m 13.159832,3.83635 c 0.359832,1.2848667 24.520504,1.2848667 24.880336,0 C 38.4,2.5514829 38.4,0 38.4,0 L 12.8,0 c 0,0 0,2.5514829 0.359832,3.83635 z" /><path
       inkscape:connector-curvature="0"
       id="path20"
       style="fill:#2d2d2d;fill-opacity:1;fill-rule:nonzero;stroke:none"
       d="M 25.590002,41.6 C 20.295106,41.6 16,37.300896 16,31.990002 16,26.695106 20.295106,22.4 25.590002,22.4 30.904894,22.4 35.2,26.695106 35.2,31.990002 35.2,37.300896 30.904894,41.6 25.590002,41.6 Z m 0,-3.203332 c 3.547262,0 6.406666,-2.8754 6.406666,-6.406666 0,-3.531264 -2.859404,-6.38667 -6.406666,-6.38667 -3.527266,0 -6.38667,2.855406 -6.38667,6.38667 0,3.531266 2.859404,6.406666 6.38667,6.406666 z" /></g></svg>

<svg xmlns="http://www.w3.org/2000/svg" viewBox="0 0 64 64">
 <g transform="matrix(1.25,0,0,-1.25,0,64)">
  <path d="m 20 16 11.2 0 0 -12.8 -11.2 0 0 12.8" style="fill:#2d2d2d;fill-opacity:1;stroke:none;fill-rule:nonzero"/>
  <path d="m 25.59 51.2 c -10.595 0 -19.19 -8.59 -19.19 -19.2 0 -10.59 8.595 -19.2 19.19 -19.2 10.615 0 19.21 8.61 19.21 19.2 c 0 10.61 -8.595 19.2 -19.21 19.2 z m 0 -10.874 c 4.597 0 8.331 -3.731 8.331 -8.326 0 -4.591 -3.733 -8.31 -8.331 -8.31 -4.593 0 -8.315 3.719 -8.315 8.31 0 4.595 3.721 8.326 8.315 8.326 z" style="fill:#888;fill-opacity:1;stroke:none;fill-rule:nonzero"/>
  <path d="m 13.16 3.836 c 0.36 1.285 24.521 1.285 24.88 0 c 0.36 -1.285 0.36 -3.836 0.36 -3.836 l -25.6 0 c 0 0 0 2.551 0.36 3.836 z" style="fill:#888;fill-opacity:1;stroke:none;fill-rule:nonzero"/>
  <path d="m 25.59 41.6 c -5.295 0 -9.59 -4.299 -9.59 -9.61 0 -5.295 4.295 -9.59 9.59 -9.59 5.315 0 9.61 4.295 9.61 9.59 0 5.311 -4.295 9.61 -9.61 9.61 m 0 -3.203 c 3.547 0 6.407 -2.875 6.407 -6.407 0 -3.531 -2.859 -6.387 -6.407 -6.387 -3.527 0 -6.387 2.855 -6.387 6.387 0 3.531 2.859 6.407 6.387 6.407 z" style="fill:#2d2d2d;fill-opacity:1;stroke:none;fill-rule:nonzero"/>
 </g>
</svg>
